X: 8
T: 101 To Dublin
R: waltz
M: 3/4
K: Ddorian
de|:f3e dc|c4 Ac|d3c AG|FD- D4-|
D4 de|f4 f/g/a|e3d ce|d6-|1 d4 de:|2 d3-d2^c||
d3e fg|a3g fd|ec c3B|c3-c2^c|
d3e fg|a3_b ag|ad d4-|d3-d2^c|
d3e fg|a3g fd|ec c3B|c3-c2 A/B/c|
d3c AG|F2 E2 D2|D6-|D4 de||

